src/assets/img/Logo.svg

<svg width="188" height="184" viewBox="0 0 188 184" fill="none" xmlns="http://www.w3.org/2000/svg">
<g clip-path="url(#clip0_169_96)">
<path d="M173.488 0H87.6223C79.8556 0 73.6709 6.08615 73.6709 13.5877V83.5077H173.345C180.968 83.5077 187.152 77.4215 187.152 69.92V13.5877C187.296 6.08615 181.111 0 173.488 0Z" fill="#92C83E"/>
<path d="M104.019 48.4062C107.752 48.4062 110.779 45.4278 110.779 41.7539C110.779 38.0799 107.752 35.1016 104.019 35.1016C100.285 35.1016 97.2588 38.0799 97.2588 41.7539C97.2588 45.4278 100.285 48.4062 104.019 48.4062Z" fill="white"/>
<path d="M130.483 48.4062C134.217 48.4062 137.243 45.4278 137.243 41.7539C137.243 38.0799 134.217 35.1016 130.483 35.1016C126.75 35.1016 123.723 38.0799 123.723 41.7539C123.723 45.4278 126.75 48.4062 130.483 48.4062Z" fill="white"/>
<path d="M156.948 48.4062C160.681 48.4062 163.708 45.4278 163.708 41.7539C163.708 38.0799 160.681 35.1016 156.948 35.1016C153.215 35.1016 150.188 38.0799 150.188 41.7539C150.188 45.4278 153.215 48.4062 156.948 48.4062Z" fill="white"/>
<path d="M14.5571 99.643C6.93417 99.643 0.749512 105.729 0.749512 113.231V170.271C0.749512 177.772 6.93417 183.858 14.5571 183.858H100.423C108.046 183.858 114.231 177.772 114.231 170.271V99.5015H14.5571V99.643Z" fill="#FBB03B"/>
<path d="M30.9533 148.474C34.6868 148.474 37.7133 145.496 37.7133 141.822C37.7133 138.148 34.6868 135.169 30.9533 135.169C27.2199 135.169 24.1934 138.148 24.1934 141.822C24.1934 145.496 27.2199 148.474 30.9533 148.474Z" fill="white"/>
<path d="M57.4182 148.474C61.1516 148.474 64.1782 145.496 64.1782 141.822C64.1782 138.148 61.1516 135.169 57.4182 135.169C53.6847 135.169 50.6582 138.148 50.6582 141.822C50.6582 145.496 53.6847 148.474 57.4182 148.474Z" fill="white"/>
<path d="M83.8825 148.474C87.616 148.474 90.6425 145.496 90.6425 141.822C90.6425 138.148 87.616 135.169 83.8825 135.169C80.1491 135.169 77.1226 138.148 77.1226 141.822C77.1226 145.496 80.1491 148.474 83.8825 148.474Z" fill="white"/>
<path d="M57.4181 55.4831V83.6492H28.9399C13.1187 83.6492 0.317871 71.0523 0.317871 55.4831C0.317871 39.9138 13.1187 27.3169 28.9399 27.3169C44.7611 27.3169 57.4181 40.0554 57.4181 55.4831Z" fill="#ED1E79"/>
<path d="M130.196 127.809V99.6431H158.818C174.639 99.6431 187.44 112.24 187.44 127.809C187.44 143.378 174.639 155.975 158.818 155.975C142.997 155.975 130.196 143.237 130.196 127.809Z" fill="#3FA9F5"/>
</g>
<defs>
<clipPath id="clip0_169_96">
<rect width="186.978" height="184" fill="white" transform="translate(0.317871)"/>
</clipPath>
</defs>
</svg>

<svg width="188" height="184" fill="none" xmlns="http://www.w3.org/2000/svg"><g clip-path="url(#a)"><path d="M173.488 0H87.622c-7.766 0-13.951 6.086-13.951 13.588v69.92h99.674c7.623 0 13.807-6.087 13.807-13.588V13.588C187.296 6.086 181.111 0 173.488 0Z" fill="#92C83E"/><path d="M104.019 48.406c3.733 0 6.76-2.978 6.76-6.652s-3.027-6.652-6.76-6.652c-3.734 0-6.76 2.978-6.76 6.652s3.026 6.652 6.76 6.652ZM130.483 48.406c3.734 0 6.76-2.978 6.76-6.652s-3.026-6.652-6.76-6.652c-3.733 0-6.76 2.978-6.76 6.652s3.027 6.652 6.76 6.652ZM156.948 48.406c3.733 0 6.76-2.978 6.76-6.652s-3.027-6.652-6.76-6.652c-3.733 0-6.76 2.978-6.76 6.652s3.027 6.652 6.76 6.652Z" fill="#fff"/><path d="M14.557 99.643C6.934 99.643.75 105.729.75 113.231v57.04c0 7.501 6.184 13.587 13.807 13.587h85.866c7.623 0 13.808-6.086 13.808-13.587v-70.77H14.557v.142Z" fill="#FBB03B"/><path d="M30.953 148.474c3.734 0 6.76-2.978 6.76-6.652s-3.026-6.653-6.76-6.653c-3.733 0-6.76 2.979-6.76 6.653 0 3.674 3.027 6.652 6.76 6.652ZM57.418 148.474c3.734 0 6.76-2.978 6.76-6.652s-3.026-6.653-6.76-6.653c-3.733 0-6.76 2.979-6.76 6.653 0 3.674 3.027 6.652 6.76 6.652ZM83.882 148.474c3.734 0 6.76-2.978 6.76-6.652s-3.026-6.653-6.76-6.653c-3.733 0-6.76 2.979-6.76 6.653 0 3.674 3.027 6.652 6.76 6.652Z" fill="#fff"/><path d="M57.418 55.483V83.65H28.94C13.119 83.65.318 71.052.318 55.483c0-15.57 12.8-28.166 28.622-28.166 15.821 0 28.478 12.738 28.478 28.166Z" fill="#ED1E79"/><path d="M130.196 127.809V99.643h28.622c15.821 0 28.622 12.597 28.622 28.166s-12.801 28.166-28.622 28.166-28.622-12.738-28.622-28.166Z" fill="#3FA9F5"/></g><defs><clipPath id="a"><path fill="#fff" transform="translate(.318)" d="M0 0h186.978v184H0z"/></clipPath></defs></svg>
